public/weather/sleet.svg

<?xml version="1.0" encoding="utf-8"?>
<!-- Generator: Adobe Illustrator 17.0.0, SVG Export Plug-In . SVG Version: 6.00 Build 0)  -->
<!DOCTYPE svg PUBLIC "-//W3C//DTD SVG 1.1//EN" "http://www.w3.org/Graphics/SVG/1.1/DTD/svg11.dtd">
<svg version="1.1" xmlns="http://www.w3.org/2000/svg" xmlns:xlink="http://www.w3.org/1999/xlink" x="0px" y="0px" width="96px"
	 height="96px" viewBox="0 0 96 96" enable-background="new 0 0 96 96" xml:space="preserve">
<g id="Base" display="none">
</g>
<g id="Dibujo">
	<path fill="#CCD" d="M48,78c-1.105,0-2,0.896-2,2v4c0,1.104,0.895,2,2,2c1.104,0,2-0.896,2-2v-4C50,78.896,49.104,78,48,78z M39,72
		c-1.105,0-2,0.896-2,2v4c0,1.104,0.895,2,2,2c1.104,0,2-0.896,2-2v-4C41,72.896,40.104,72,39,72z M57,72c-1.105,0-2,0.896-2,2v4
		c0,1.104,0.895,2,2,2c1.104,0,2-0.896,2-2v-4C59,72.896,58.104,72,57,72z M66,40c-0.508,0-1.112,0.079-1.689,0.184
		C62.218,33.012,55.663,28,48,28c-7.664,0-14.219,5.012-16.312,12.184C31.112,40.079,30.507,40,30,40c-6.065,0-11,4.935-11,11
		s4.935,11,11,11h7v4c0,1.104,0.895,2,2,2c1.104,0,2-0.896,2-2v-4h14v4c0,1.104,0.895,2,2,2c1.104,0,2-0.896,2-2v-4h7
		c6.065,0,11-4.935,11-11S72.065,40,66,40z M66,58H30c-3.859,0-7-3.141-7-7s3.141-7,7-7c0.277,0,0.723,0.068,1.193,0.162V46
		c0,1.104,0.895,2,2,2c1.105,0,2-0.896,2-2v-3.219C36.266,36.528,41.629,32,48,32c6.37,0,11.733,4.528,12.807,10.782V46
		c0,1.104,0.896,2,2,2s2-0.896,2-2v-1.837C65.277,44.069,65.726,44,66,44c3.859,0,7,3.141,7,7S69.859,58,66,58z M48,66
		c-1.105,0-2,0.896-2,2v4c0,1.104,0.895,2,2,2c1.104,0,2-0.896,2-2v-4C50,66.896,49.104,66,48,66z"/>
</g>
</svg>

<svg xmlns="http://www.w3.org/2000/svg" viewBox="2798 -1891 58 58"><defs><style>.a{fill:#9381ff;}</style></defs><g transform="translate(2779 -1919)"><path class="a" d="M48,78a2,2,0,0,0-2,2v4a2,2,0,0,0,4,0V80A2,2,0,0,0,48,78Zm-9-6a2,2,0,0,0-2,2v4a2,2,0,0,0,4,0V74A2,2,0,0,0,39,72Zm18,0a2,2,0,0,0-2,2v4a2,2,0,0,0,4,0V74A2,2,0,0,0,57,72Zm9-32a9.935,9.935,0,0,0-1.689.184,17.011,17.011,0,0,0-32.623,0A9.924,9.924,0,0,0,30,40a11,11,0,0,0,0,22h7v4a2,2,0,0,0,4,0V62H55v4a2,2,0,0,0,4,0V62h7a11,11,0,0,0,0-22Zm0,18H30a7,7,0,0,1,0-14,7.09,7.09,0,0,1,1.193.162V46a2,2,0,0,0,4,0V42.781a13,13,0,0,1,25.614,0V46a2,2,0,0,0,4,0V44.163A7.149,7.149,0,0,1,66,44a7,7,0,0,1,0,14ZM48,66a2,2,0,0,0-2,2v4a2,2,0,0,0,4,0V68A2,2,0,0,0,48,66Z"/></g></svg>
